proprietary/assets/icons/water/stroomsnelheid.svg

<svg height="64" viewBox="0 0 64 64" width="64" xmlns="http://www.w3.org/2000/svg"><path d="m0 0h64v64h-64z" fill="none"/><path d="m56.043 15.75c-1.8911 0-4.1094-1.3379-4.7998-1.8496l-1.2002-.9004-1.2002.9004c-.6396.4795-2.895 1.8496-4.7998 1.8496-1.8911 0-4.1094-1.3379-4.7998-1.8496l-1.2002-.9004-1.2002.9004c-.6396.4795-2.895 1.8496-4.7998 1.8496-1.8911 0-4.1094-1.3379-4.7998-1.8496l-1.2002-.9004-1.2002.9004c-.6396.4795-2.895 1.8496-4.7998 1.8496-1.8911 0-4.1094-1.3379-4.7998-1.8496l-1.2002-.9004-1.2002.9004c-.6397.4795-2.895 1.8496-4.7998 1.8496-1.0184 0-2.1246-.3893-3.043-.8273v4.2183c.9427.3047 1.9789.519 3.043.519 2.397 0 4.6631-1.0762 6-1.8633 1.3369.7871 3.603 1.8633 6 1.8633s4.6631-1.0762 6-1.8633c1.3369.7871 3.603 1.8633 6 1.8633s4.6631-1.0762 6-1.8633c1.3369.7871 3.603 1.8633 6 1.8633s4.6631-1.0762 6-1.8633c1.3369.7871 3.603 1.8633 6 1.8633 1.0322 0 2.0372-.2025 2.957-.4926v-4.203c-.8999.4195-1.9733.7856-2.957.7856z"/><path d="m28.1621 39.2383c-.1672-.1419-.3651-.2202-.566-.2355-.272-.0207-.5494.0739-.7631.2822-.3721.3612-.4409.9571-.163 1.4042l2.0644 3.3108h-21.2195c-1.1674 0-1.5149 1.1241-1.5149 2.1197 0 .9974.3475 1.8803 1.5149 1.8803h21.2195l-3.0645 3.3107c-.2778.4471-.2091 1.043.163 1.4042.2137.2083.4911.3029.7631.2822.2009-.0153.3989-.0936.566-.2355l7.9539-5.9118c.2426-.2064.3841-.5192.3841-.8498s-.1415-.6434-.384-.8499z"/><path d="m45.1621 25.2383c-.1672-.1419-.3651-.2202-.566-.2355-.272-.0207-.5494.0739-.7631.2822-.3721.3612-.4409.9571-.163 1.4042l2.0644 3.3108h-38.2195c-1.1674 0-1.5149 1.1241-1.5149 2.1197 0 .9974.3475 1.8803 1.5149 1.8803h38.2195l-2.0645 3.3107c-.2778.4471-.2091 1.043.163 1.4042.2137.2083.4911.3029.7631.2822.2009-.0153.3989-.0936.566-.2355l6.9539-5.9118c.2426-.2064.3841-.5192.3841-.8498s-.1415-.6434-.384-.8499z"/></svg>

<?xml version="1.0" encoding="utf-8"?>
<!-- Generator: Adobe Illustrator 18.1.0, SVG Export Plug-In . SVG Version: 6.00 Build 0)  -->
<svg version="1.2" baseProfile="tiny" xmlns="http://www.w3.org/2000/svg" xmlns:xlink="http://www.w3.org/1999/xlink" x="0px"
	 y="0px" width="64px" height="64px" viewBox="0 0 64 64" xml:space="preserve">
<g id="Box">
	<rect fill="none" width="64" height="64"/>
</g>
<g id="Icon">
	<g>
		<path d="M56.043,15.75c-1.8911,0-4.1094-1.3379-4.7998-1.8496L50.043,13l-1.2002,0.9004
			c-0.6396,0.4795-2.895,1.8496-4.7998,1.8496c-1.8911,0-4.1094-1.3379-4.7998-1.8496L38.043,13l-1.2002,0.9004
			c-0.6396,0.4795-2.895,1.8496-4.7998,1.8496c-1.8911,0-4.1094-1.3379-4.7998-1.8496L26.043,13l-1.2002,0.9004
			c-0.6396,0.4795-2.895,1.8496-4.7998,1.8496c-1.8911,0-4.1094-1.3379-4.7998-1.8496L14.043,13l-1.2002,0.9004
			C12.2031,14.3799,9.9478,15.75,8.043,15.75c-1.0184,0-2.1246-0.3893-3.043-0.8273v4.2183c0.9427,0.3047,1.9789,0.519,3.043,0.519
			c2.397,0,4.6631-1.0762,6-1.8633c1.3369,0.7871,3.603,1.8633,6,1.8633s4.6631-1.0762,6-1.8633
			c1.3369,0.7871,3.603,1.8633,6,1.8633s4.6631-1.0762,6-1.8633c1.3369,0.7871,3.603,1.8633,6,1.8633s4.6631-1.0762,6-1.8633
			c1.3369,0.7871,3.603,1.8633,6,1.8633c1.0322,0,2.0372-0.2025,2.957-0.4926v-4.203C58.1001,15.3839,57.0267,15.75,56.043,15.75z"
			/>
		<path d="M28.1621,39.2383c-0.1672-0.1419-0.3651-0.2202-0.566-0.2355c-0.272-0.0207-0.5494,0.0739-0.7631,0.2822
			c-0.3721,0.3612-0.4409,0.9571-0.163,1.4042L28.7344,44H7.5149C6.3475,44,6,45.1241,6,46.1197C6,47.1171,6.3475,48,7.5149,48
			h21.2195l-3.0645,3.3107c-0.2778,0.4471-0.2091,1.043,0.163,1.4042c0.2137,0.2083,0.4911,0.3029,0.7631,0.2822
			c0.2009-0.0153,0.3989-0.0936,0.566-0.2355l7.9539-5.9118C35.3585,46.6434,35.5,46.3306,35.5,46s-0.1415-0.6434-0.384-0.8499
			L28.1621,39.2383z"/>
		<path d="M45.1621,25.2383c-0.1672-0.1419-0.3651-0.2202-0.566-0.2355c-0.272-0.0207-0.5494,0.0739-0.7631,0.2822
			c-0.3721,0.3612-0.4409,0.9571-0.163,1.4042L45.7344,30H7.5149C6.3475,30,6,31.1241,6,32.1197C6,33.1171,6.3475,34,7.5149,34
			h38.2195l-2.0645,3.3107c-0.2778,0.4471-0.2091,1.043,0.163,1.4042c0.2137,0.2083,0.4911,0.3029,0.7631,0.2822
			c0.2009-0.0153,0.3989-0.0936,0.566-0.2355l6.9539-5.9118C52.3585,32.6434,52.5,32.3306,52.5,32s-0.1415-0.6434-0.384-0.8499
			L45.1621,25.2383z"/>
	</g>
</g>
</svg>
